X:1
T:Title
%%score ( 1 2 ) ( 3 4 )
L:1/8
Q:1/4=120
M:4/4
K:D
V:1 treble nm="MusicXML Part"
V:2 treble 
V:3 bass nm="MusicXML Part"
V:4 bass 
V:1
 x2"^The Church's one foundation""^Aurelia (76. 76. D)""^Samuel J. Stone\n(1839-1900)" F2 | %1
 F2 F2 G2 F2 | F4 E2 D2 | D2 B2 A2 G2 |"^S. S. Wesley\n(1810-1876)" F6 G2 | A2 d2 d2 c2 | %6
 c4 B2 A2 | G2 A2 F2 D2 | E6 E2 | F2 G2 A2 B2 | B4 A2 d2 | d3 c B2 F2 | G6 E2 | F2 F2 G2 F2 | %14
 F4 E2 D2 | D2 E2 D2 C2 | D6 :| x2 F2 | F2 F2 G2 F2 | F4 E2 D2 | D2 B2 A2 G2 | F6 G2 | %22
 A2 d2 d2 c2 | c4 B2 A2 | G2 A2 F2 D2 | E6 E2 | F2 G2 A2 B2 | B4 A2 d2 | d3 c B2 F2 | G6 E2 | %30
 F2 F2 G2 F2 | F4 E2 D2 | D2 E2 D2 C2 | D6 |: x2 F2 | F2 F2 G2 F2 | F4 E2 D2 | D2 B2 A2 G2 | %38
 F6 G2 | A2 d2 d2 c2 | c4 B2 A2 | G2 A2 F2 D2 | E6 E2 | F2 G2 A2 B2 | B4 A2 d2 | d3 c B2 F2 | %46
 G6 E2 | F2 F2 G2 F2 | F4 E2 D2 | D2 E2 D2 C2 | D6 :| %51
V:2
 x2 D2 | D2 D2 D2 D2 | D4 C2 D2 | B,2 D2 D2 C2 | D6 C2 | D2 D2 D2 E2 | E4 D2 F2 | F2 E2 D2 D2 | %8
w: The|Church- 's one foun-|da- tion is|Je- sus Christ her|Lord; she|is his new cre-|a- tion by|wa- ter and the|
w: E-|lect from ev- ery|na- tion, yet|one o'er all the|earth, her|char- ter of sal-|va- tion one|Lord, one faith, one|
 C6 C2 | D2 C2 D2 D2 | D4 D2 F2 | F3 F F2 F2 | E6 E2 | D2 D2 D2 D2 | B,4 B,2 B,2 | %15
w: word: from|heaven he came and|sought her to|be his ho- ly|Bride; with|his own blood he|bought her, and|
w: birth; one|ho- ly name she|bles- ses, par-|takes one ho- ly|food, and|to one hope she|pres- ses with|
 B,2 B,2 A,2 A,2 | A,6 :| x2 D2 | D2 D2 D2 D2 | D4 C2 D2 | B,2 D2 D2 C2 | D6 C2 | D2 D2 D2 E2 | %23
w: for her life he|died.|Though|with a scorn- ful|won- der men|see her sore op-|prest, by|schi- sms rent a-|
w: ev- ery grace en-|dued.|||||||
 E4 D2 F2 | F2 E2 D2 D2 | C6 C2 | D2 C2 D2 D2 | D4 D2 F2 | F3 F F2 F2 | E6 E2 | D2 D2 D2 D2 | %31
w: sun- der, by|he- re- sies dis-|trest, yet|saints their watch are|keep- ing, their|cry goes up, "How|long?" and|soon the night of|
w: ||||||||
 B,4 B,2 B,2 | B,2 B,2 A,2 A,2 | A,6 |: x2 D2 | D2 D2 D2 D2 | D4 C2 D2 | B,2 D2 D2 C2 | D6 C2 | %39
w: weep- ing shall|be the morn of|song.|Mid|toil and tri- bu-|la- tion, and|tu- mult of her|war, she|
w: |||Yet|she on earth hath|u- nion with|God, the Three in|One, and|
 D2 D2 D2 E2 | E4 D2 F2 | F2 E2 D2 D2 | C6 C2 | D2 C2 D2 D2 | D4 D2 F2 | F3 F F2 F2 | E6 E2 | %47
w: waits the con- sum-|ma- tion of|peace for e- ver-|more; till|with the vi- sion|glo- rious her|long- ing eyes are|blest, and|
w: mys- tic sweet com-|mu- nion with|those whose rest is|won: O|hap- py ones and|ho- ly! Lord,|give us grace that|we, like|
 D2 D2 D2 D2 | B,4 B,2 B,2 | B,2 B,2 A,2 A,2 | A,6 :| %51
w: the great Church vic-|to- rious shall|be the Church at|rest.|
w: them, the meek and|low- ly, on|high may dwell with|thee.|
V:3
 x2 A,2 | A,2 A,2 B,2 A,2 | A,4 A,2 A,2 | E,2 E,2 F,2 A,2 | A,6 A,2 | A,2 A,2 ^A,2 A,2 | %6
 ^A,4 B,2 C2 | D2 E2 A,2 ^G,2 | A,6 A,2 | A,2 A,2 A,2 G,2 | G,4 A,2 B,2 | B,3 ^A, B,2 B,2 | %12
 B,6 A,2 | A,2 A,2 B,2 A,2 | A,4 G,2 G,2 | G,2 G,2 E,2 G,2 | F,6 :| x2 A,2 | A,2 A,2 B,2 A,2 | %19
 A,4 A,2 A,2 | E,2 E,2 F,2 A,2 | A,6 A,2 | A,2 A,2 ^A,2 A,2 | ^A,4 B,2 C2 | D2 E2 A,2 ^G,2 | %25
 A,6 A,2 | A,2 A,2 A,2 G,2 | G,4 A,2 B,2 | B,3 ^A, B,2 B,2 | B,6 A,2 | A,2 A,2 B,2 A,2 | %31
 A,4 G,2 G,2 | G,2 G,2 E,2 G,2 | F,6 |: x2 A,2 | A,2 A,2 B,2 A,2 | A,4 A,2 A,2 | E,2 E,2 F,2 A,2 | %38
 A,6 A,2 | A,2 A,2 ^A,2 A,2 | ^A,4 B,2 C2 | D2 E2 A,2 ^G,2 | A,6 A,2 | A,2 A,2 A,2 G,2 | %44
 G,4 A,2 B,2 | B,3 ^A, B,2 B,2 | B,6 A,2 | A,2 A,2 B,2 A,2 | A,4 G,2 G,2 | G,2 G,2 E,2 G,2 | F,6 :| %51
V:4
 x2 D,2 | D,2 D,2 D,2 D,2 | A,,4 G,,2 F,,2 | G,,2 G,,2 A,,2 A,,2 | D,6 E,2 | F,2 F,2 F,2 F,,2 | %6
 G,,4 G,,2 A,,2 | B,,2 C,2 D,2 B,,2 | A,,6 A,,2 | D,2 E,2 F,2 G,2 | G,4 F,2 B,,2 | %11
 F,3 E, D,2 ^D,2 | E,6 C,2 | D,2 D,2 D,2 D,2 | G,,4 G,,2 G,2 | E,2 E,2 A,,2 A,,2 | D,6 :| x2 D,2 | %18
 D,2 D,2 D,2 D,2 | A,,4 G,,2 F,,2 | G,,2 G,,2 A,,2 A,,2 | D,6 E,2 | F,2 F,2 F,2 F,,2 | %23
 G,,4 G,,2 A,,2 | B,,2 C,2 D,2 B,,2 | A,,6 A,,2 | D,2 E,2 F,2 G,2 | G,4 F,2 B,,2 | %28
 F,3 E, D,2 ^D,2 | E,6 C,2 | D,2 D,2 D,2 D,2 | G,,4 G,,2 G,2 | E,2 E,2 A,,2 A,,2 | D,6 |: x2 D,2 | %35
 D,2 D,2 D,2 D,2 | A,,4 G,,2 F,,2 | G,,2 G,,2 A,,2 A,,2 | D,6 E,2 | F,2 F,2 F,2 F,,2 | %40
 G,,4 G,,2 A,,2 | B,,2 C,2 D,2 B,,2 | A,,6 A,,2 | D,2 E,2 F,2 G,2 | G,4 F,2 B,,2 | %45
 F,3 E, D,2 ^D,2 | E,6 C,2 | D,2 D,2 D,2 D,2 | G,,4 G,,2 G,2 | E,2 E,2 A,,2 A,,2 | D,6 :| %51

